packages/theme-chalk/src/icons/item-list.svg

<svg xmlns="http://www.w3.org/2000/svg" width="24" height="24" viewBox="0 0 24 24">
    <g fill-rule="evenodd">
        <path fill-rule="nonzero" d="M3 13h2v-2H3v2zm0 4h2v-2H3v2zm0-8h2V7H3v2zm4 4h14v-2H7v2zm0 4h14v-2H7v2zM7 7v2h14V7H7z"/>
    </g>
</svg>

<svg width="18px" height="10px" viewBox="0 0 18 10" version="1.1" xmlns="http://www.w3.org/2000/svg" xmlns:xlink="http://www.w3.org/1999/xlink">
    <g id="Symbols" stroke="none" stroke-width="1">
        <g id="icon/active/list" transform="translate(-3.000000, -7.000000)" fill-rule="nonzero">
            <path d="M3,13 L5,13 L5,11 L3,11 L3,13 Z M3,17 L5,17 L5,15 L3,15 L3,17 Z M3,9 L5,9 L5,7 L3,7 L3,9 Z M7,13 L21,13 L21,11 L7,11 L7,13 Z M7,17 L21,17 L21,15 L7,15 L7,17 Z M7,7 L7,9 L21,9 L21,7 L7,7 Z"></path>
        </g>
    </g>
</svg>
